X: 1
T: Jenny Will You Marry Me
M: 4/4
L: 1/8
R: reel
K: Gmaj
D2DE GABA|GE~E2 cEGE|D2DE GABc|1 dedB (3ABA GE:|2 dedB (3ABA G2||
|:d2dc Bcd2|e2ed cde2|d2dc BcdB|1 GABG (3ABA GB:|2 GABG (3ABA GE||
